X:1
T:The Kilcummin
L:1/8
M:12/8
I:linebreak $
K:G
V:1 treble 
V:1
 A | BBB BAG e2 d BAG | AAA AGA B2 A G2 A | BBB BAB e2 d BAG | AAA B2 A GGG |1$ G2 :|2 G || Bd | %8
 gag fgf efe dBG | AAA AGA B2 A GBd | gag fgf efe dBG |$ AAA B2 A GGG G :| %12
